packages/ffe-icons/icons/open/300/sm/trip.svg

<svg xmlns="http://www.w3.org/2000/svg" height="20" viewBox="0 -960 960 960" width="20"><path d="M180.309-164.001q-26.623 0-45.465-18.843-18.843-18.842-18.843-45.465v-407.382q0-26.623 18.843-45.465 18.842-18.843 45.465-18.843h175.692v-59.903q0-26.711 18.868-45.403t45.528-18.692h119.558q26.659 0 45.351 18.842 18.693 18.842 18.693 45.465v59.691h175.692q26.623 0 45.465 18.843 18.843 18.842 18.843 45.465v407.382q0 26.623-18.843 45.465-18.842 18.843-45.465 18.843H180.309ZM408-699.999h144v-59.691q0-4.616-3.846-8.462-3.847-3.847-8.463-3.847H420.309q-4.616 0-8.463 3.847Q408-764.306 408-759.69v59.691ZM260.001-648h-79.692q-4.616 0-8.463 3.846-3.846 3.847-3.846 8.463v407.382q0 4.616 3.846 8.463 3.847 3.846 8.463 3.846h79.692v-432ZM648-216v-432H312v432h336Zm51.999-432v432h79.692q4.616 0 8.463-3.846 3.846-3.847 3.846-8.463v-407.382q0-4.616-3.846-8.463-3.847-3.846-8.463-3.846h-79.692ZM480-425Z"/></svg>

<svg xmlns="http://www.w3.org/2000/svg" height="20" viewBox="0 -960 960 960" width="20"><path d="M180.31-164q-26.62 0-45.47-18.84Q116-201.69 116-228.31v-407.38q0-26.62 18.84-45.47Q153.69-700 180.31-700H356v-59.9q0-26.71 18.87-45.4Q393.74-824 420.4-824h119.56q26.65 0 45.35 18.85Q604-786.31 604-759.69V-700h175.69q26.62 0 45.47 18.84Q844-662.31 844-635.69v407.38q0 26.62-18.84 45.47Q806.31-164 779.69-164H180.31ZM408-700h144v-59.69q0-4.62-3.85-8.46-3.84-3.85-8.46-3.85H420.31q-4.62 0-8.46 3.85-3.85 3.84-3.85 8.46V-700Zm-148 52h-79.69q-4.62 0-8.46 3.85-3.85 3.84-3.85 8.46v407.38q0 4.62 3.85 8.46 3.84 3.85 8.46 3.85H260v-432Zm388 432v-432H312v432h336Zm52-432v432h79.69q4.62 0 8.46-3.85 3.85-3.84 3.85-8.46v-407.38q0-4.62-3.85-8.46-3.84-3.85-8.46-3.85H700ZM480-425Z"/></svg>
